build/img/close-circle.svg

<svg width="32" height="32" viewBox="0 0 32 32" fill="none" xmlns="http://www.w3.org/2000/svg">
<path d="M12.2293 21.656L16 17.8853L19.7707 21.656L21.656 19.7707L17.8853 16L21.656 12.2293L19.7707 10.344L16 14.1147L12.2293 10.344L10.344 12.2293L14.1147 16L10.344 19.7707L12.2293 21.656Z" fill="#000080"/>
<path d="M16 29.3334C23.352 29.3334 29.3333 23.352 29.3333 16C29.3333 8.64802 23.352 2.66669 16 2.66669C8.64801 2.66669 2.66667 8.64802 2.66667 16C2.66667 23.352 8.64801 29.3334 16 29.3334ZM16 5.33335C21.8813 5.33335 26.6667 10.1187 26.6667 16C26.6667 21.8814 21.8813 26.6667 16 26.6667C10.1187 26.6667 5.33334 21.8814 5.33334 16C5.33334 10.1187 10.1187 5.33335 16 5.33335Z" fill="#000080"/>
</svg>

<svg width="32" height="32" fill="none" xmlns="http://www.w3.org/2000/svg"><path d="M12.23 21.656l3.77-3.77 3.77 3.77 1.886-1.885L17.886 16l3.77-3.77-1.885-1.886L16 14.114l-3.77-3.77-1.886 1.885L14.114 16l-3.77 3.77 1.885 1.886z" fill="navy"/><path d="M16 29.333c7.352 0 13.333-5.981 13.333-13.333S23.352 2.667 16 2.667 2.667 8.648 2.667 16 8.648 29.333 16 29.333zm0-24c5.881 0 10.667 4.786 10.667 10.667S21.88 26.667 16 26.667 5.333 21.88 5.333 16 10.12 5.333 16 5.333z" fill="navy"/></svg>
